logo.svg

<?xml version="1.0" encoding="UTF-8" standalone="no"?>
<svg
   xmlns:dc="http://purl.org/dc/elements/1.1/"
   xmlns:cc="http://creativecommons.org/ns#"
   xmlns:rdf="http://www.w3.org/1999/02/22-rdf-syntax-ns#"
   xmlns:svg="http://www.w3.org/2000/svg"
   xmlns="http://www.w3.org/2000/svg"
   xmlns:xlink="http://www.w3.org/1999/xlink"
   xmlns:sodipodi="http://sodipodi.sourceforge.net/DTD/sodipodi-0.dtd"
   xmlns:inkscape="http://www.inkscape.org/namespaces/inkscape"
   id="svg8"
   version="1.1"
   viewBox="0 0 163.2323 163.2323"
   height="500px"
   width="500px"
   sodipodi:docname="Capture-one-logo.svg"
   enable-background="new"
   inkscape:version="0.92.2 5c3e80d, 2017-08-06">
  <sodipodi:namedview
     pagecolor="#ffffff"
     bordercolor="#666666"
     borderopacity="1"
     objecttolerance="10"
     gridtolerance="10"
     guidetolerance="10"
     inkscape:pageopacity="0"
     inkscape:pageshadow="2"
     inkscape:window-width="1600"
     inkscape:window-height="839"
     id="namedview1669"
     showgrid="false"
     showguides="false"
     inkscape:zoom="1"
     inkscape:cx="221.80068"
     inkscape:cy="341.06978"
     inkscape:window-x="0"
     inkscape:window-y="0"
     inkscape:window-maximized="1"
     inkscape:current-layer="svg8" />
  <defs
     id="defs2">
    <linearGradient
       inkscape:collect="always"
       id="linearGradient2386">
      <stop
         style="stop-color:#2ab4e6;stop-opacity:0.95098037"
         offset="0"
         id="stop2382" />
      <stop
         style="stop-color:#1881ba;stop-opacity:0.98039216"
         offset="1"
         id="stop2384" />
    </linearGradient>
    <linearGradient
       inkscape:collect="always"
       id="linearGradient2229">
      <stop
         style="stop-color:#1691ca;stop-opacity:1"
         offset="0"
         id="stop2225" />
      <stop
         style="stop-color:#27abdf;stop-opacity:0.99509805"
         offset="1"
         id="stop2227" />
    </linearGradient>
    <linearGradient
       inkscape:collect="always"
       xlink:href="#linearGradient2229"
       id="linearGradient2231"
       x1="399.32031"
       y1="507.55469"
       x2="129.62788"
       y2="237.86226"
       gradientUnits="userSpaceOnUse" />
    <linearGradient
       inkscape:collect="always"
       xlink:href="#linearGradient2386"
       id="linearGradient2388"
       x1="76.250923"
       y1="81.440811"
       x2="149.47908"
       y2="208.2757"
       gradientUnits="userSpaceOnUse" />
  </defs>
  <metadata
     id="metadata5">
    <rdf:RDF>
      <cc:Work
         rdf:about="">
        <dc:format>image/svg+xml</dc:format>
        <dc:type
           rdf:resource="http://purl.org/dc/dcmitype/StillImage" />
        <dc:title />
      </cc:Work>
    </rdf:RDF>
  </metadata>
  <g
     transform="translate(-36.06636,-60.545837)"
     style="display:inline"
     id="layer1">
    <circle
       style="display:inline;opacity:1;fill:#e9f1f4;fill-opacity:1;stroke:none;stroke-width:0.1;stroke-linecap:butt;stroke-linejoin:round;stroke-miterlimit:0;stroke-dasharray:none;stroke-dashoffset:0;stroke-opacity:1;paint-order:normal"
       id="circle886"
       cx="117.68251"
       cy="142.16199"
       r="81.61615" />
    <path
       style="opacity:1;fill:url(#linearGradient2231);fill-opacity:1;stroke:none;stroke-width:0.37795275;stroke-linecap:butt;stroke-linejoin:round;stroke-miterlimit:0;stroke-dasharray:none;stroke-dashoffset:0;stroke-opacity:1;paint-order:normal"
       d="M 287.3457 110.38281 L 229.2207 149.40039 L 229.2207 189.31055 L 268.50781 189.31055 L 268.50781 451.49023 L 217.61914 451.49023 L 217.61914 507.55469 L 399.32031 507.55469 L 399.32031 451.49023 L 347.07812 451.49023 L 347.07812 110.38281 L 287.3457 110.38281 z "
       id="rect4587"
       transform="matrix(0.26458333,0,0,0.26458333,36.06636,60.545837)" />
    <circle
       r="71.788773"
       cy="142.16199"
       cx="117.68251"
       id="path882"
       style="opacity:1;fill:none;fill-opacity:1;stroke:url(#linearGradient2388);stroke-width:3.92900062;stroke-linecap:butt;stroke-linejoin:round;stroke-miterlimit:0;stroke-dasharray:none;stroke-dashoffset:0;stroke-opacity:1;paint-order:normal" />
  </g>
</svg>

<?xml version="1.0" encoding="UTF-8"?>
<svg width="500px" height="500px" enable-background="new" version="1.1" viewBox="0 0 163.23 163.23" xmlns="http://www.w3.org/2000/svg" xmlns:cc="http://creativecommons.org/ns#" xmlns:dc="http://purl.org/dc/elements/1.1/" xmlns:rdf="http://www.w3.org/1999/02/22-rdf-syntax-ns#" xmlns:xlink="http://www.w3.org/1999/xlink">
<defs>
<linearGradient id="b" x1="399.32" x2="129.63" y1="507.55" y2="237.86" gradientUnits="userSpaceOnUse">
<stop stop-color="#1691ca" offset="0"/>
<stop stop-color="#27abdf" stop-opacity=".9951" offset="1"/>
</linearGradient>
<linearGradient id="a" x1="76.251" x2="149.48" y1="81.441" y2="208.28" gradientUnits="userSpaceOnUse">
<stop stop-color="#2ab4e6" stop-opacity=".95098" offset="0"/>
<stop stop-color="#1881ba" stop-opacity=".98039" offset="1"/>
</linearGradient>
</defs>
<metadata>
<rdf:RDF>
<cc:Work rdf:about="">
<dc:format>image/svg+xml</dc:format>
<dc:type rdf:resource="http://purl.org/dc/dcmitype/StillImage"/>
<dc:title/>
</cc:Work>
</rdf:RDF>
</metadata>
<g transform="translate(-36.066 -60.546)">
<circle cx="117.68" cy="142.16" r="81.616" fill="#e9f1f4" style="paint-order:normal"/>
<path transform="matrix(.26458 0 0 .26458 36.066 60.546)" d="m287.35 110.38-58.125 39.018v39.91h39.287v262.18h-50.889v56.064h181.7v-56.064h-52.242v-341.11h-59.732z" fill="url(#b)" style="paint-order:normal"/>
<circle cx="117.68" cy="142.16" r="71.789" fill="none" stroke="url(#a)" stroke-linejoin="round" stroke-miterlimit="0" stroke-width="3.929" style="paint-order:normal"/>
</g>
</svg>
